X: 3119
T: LADY CAROLINE MONTAGUE
Q:"Strathspey."
R: Strathspey.
%R:strathspey
B: James Kerr "Merry Melodies" v.3 p.14 #119
Z: 2016 John Chambers <jc:trillian.mit.edu>
%%slurgraces yes
%%graceslurs yes
M: C
L: 1/16
K: C
(uef) |\
vgc3e3ud ({d}c4 G2)(ef) | g3ce3c Bd3 d2(ef) |\
g3ca3c g3ce3c | (ABc2) (Bcd2) Gc3 c2(ef) |\
gc3e3d ({d}c4 G2)(ef) | g3ce3c Bd3 d2(ef) |
g3ca3c g3ce3c | (ABc2) (Bcd2) ec3 c2 |]\
uE2 |\
vC3vEuG3uc (ABc2) G3c | Cc3 e3c Bd3 d3e |\
C3EG3c (ABc2) Gc3 |
(ABc2) (Bcd2) Gc3 c2E2 |\
C3EG3c (ABc2) G3F | (EG)ce g3c Bd3d3e |\
(3c2e2f2 (3g2e2g2 (3a2f2a2 (3g2e2g2 | (3f2d2c2 (3B2g2f2 ec3 c2 |]

%%sep 1 1 500
%%sep 1 1 500

